X:269
T:Middling Thank You 
C:Joe Buchanan's Scottish Tome - Page 313.2
I:313 2
R:Jig
Z:Carl Allison
L:1/8
M:6/8
K:G
B | dcB d2 B | d2 B gfe | dcB d2 B | c2 A FED |
dcB d2 B | d2 B gfe | dcB c2 A FEF G2 :|
d | gag f2 g | efe dBG | gag f2 g | afd g2 d |
gag f2 g | efe dBG | ABA e2 e | dcA G2 :|

